X: 1
T: OWNY'S BEST -- JIG
B: Ryan's Mammoth Collection of Fiddle Tunes
R: jig
M: 6/8
L: 1/8
Z: Contributed 20010525153317 by John Chambers jc:trillian.mit.edu
K: E
(ue/f/) \
| gec BAF | Eee efg | fcc cag | fcc cgf \
| gec BAF | Eee efg | fef efg | fee e2 :|
|: (g/a/) \
| bge BGE | bge bag | aff fge | dBB Bcd \
| ege BGE | cfa aba | gfe ecB | Bcd e2 :|
